packages/kaspersky-hexa-ui-icons/src/iconsSVGs/24/EventRouter.svg

<svg width="24" height="24" viewBox="0 0 24 24" fill="none" xmlns="http://www.w3.org/2000/svg">
<path d="M7 2C5.34315 2 4 3.34315 4 5V9H6V5C6 4.44772 6.44772 4 7 4H16.7638C16.8008 3.95876 16.8391 3.9183 16.8787 3.87868C17.5268 3.23053 18.3978 2.94096 19.245 3.00996C18.6954 2.39043 17.8933 2 17 2H7Z" fill="black"/>
<path d="M19.245 20.99C18.3978 21.059 17.5268 20.7695 16.8787 20.1213C16.8391 20.0817 16.8008 20.0412 16.7638 20H7C6.44772 20 6 19.5523 6 19V15H4V19C4 20.6569 5.34315 22 7 22H17C17.8933 22 18.6954 21.6096 19.245 20.99Z" fill="black"/>
<path d="M19.7071 5.29289C19.3166 4.90237 18.6834 4.90237 18.2929 5.29289C17.9024 5.68342 17.9024 6.31658 18.2929 6.70711L18.5858 7H14C13.4477 7 13 7.44772 13 8C13 8.55228 13.4477 9 14 9H18.5858L18.2929 9.29289C17.9024 9.68342 17.9024 10.3166 18.2929 10.7071C18.6834 11.0976 19.3166 11.0976 19.7071 10.7071L21.7071 8.70711C22.0976 8.31658 22.0976 7.68342 21.7071 7.29289L19.7071 5.29289Z" fill="black"/>
<path d="M8.29289 9.29289C8.68342 8.90237 9.31658 8.90237 9.70711 9.29289L11.7071 11.2929C12.0976 11.6834 12.0976 12.3166 11.7071 12.7071L9.70711 14.7071C9.31658 15.0976 8.68342 15.0976 8.29289 14.7071C7.90237 14.3166 7.90237 13.6834 8.29289 13.2929L8.58579 13H3C2.44772 13 2 12.5523 2 12C2 11.4477 2.44772 11 3 11H8.58579L8.29289 10.7071C7.90237 10.3166 7.90237 9.68342 8.29289 9.29289Z" fill="black"/>
<path d="M18.2929 13.2929C18.6834 12.9024 19.3166 12.9024 19.7071 13.2929L21.7071 15.2929C22.0976 15.6834 22.0976 16.3166 21.7071 16.7071L19.7071 18.7071C19.3166 19.0976 18.6834 19.0976 18.2929 18.7071C17.9024 18.3166 17.9024 17.6834 18.2929 17.2929L18.5858 17H14C13.4477 17 13 16.5523 13 16C13 15.4477 13.4477 15 14 15H18.5858L18.2929 14.7071C17.9024 14.3166 17.9024 13.6834 18.2929 13.2929Z" fill="black"/>
<path d="M9 18C9 18.5523 8.55229 19 8 19C7.44772 19 7 18.5523 7 18C7 17.4477 7.44772 17 8 17C8.55229 17 9 17.4477 9 18Z" fill="black"/>
<path d="M11 19C11.5523 19 12 18.5523 12 18C12 17.4477 11.5523 17 11 17C10.4477 17 10 17.4477 10 18C10 18.5523 10.4477 19 11 19Z" fill="black"/>
</svg>

<svg xmlns="http://www.w3.org/2000/svg" width="24" height="24" fill="none" viewBox="0 0 24 24"><path fill="#000" fill-rule="evenodd" d="M4 5c0-1.6569 1.3431-3 3-3h10c.8933 0 1.6954.3904 2.245 1.01-.8472-.069-1.7182.2205-2.3663.8687A3 3 0 0 0 16.7638 4H7c-.5523 0-1 .4477-1 1v4H4zm14.2929.2929c.3905-.3905 1.0237-.3905 1.4142 0l2 2c.3905.3905.3905 1.0237 0 1.4142l-2 2c-.3905.3905-1.0237.3905-1.4142 0s-.3905-1.0237 0-1.4142L18.5858 9H14c-.5523 0-1-.4477-1-1s.4477-1 1-1h4.5858l-.2929-.2929c-.3905-.3905-.3905-1.0237 0-1.4142m-10 4c.3905-.3905 1.0237-.3905 1.4142 0l2 2c.3905.3905.3905 1.0237 0 1.4142l-2 2c-.3905.3905-1.0237.3905-1.4142 0s-.3905-1.0237 0-1.4142L8.5858 13H3c-.5523 0-1-.4477-1-1s.4477-1 1-1h5.5858l-.2929-.2929c-.3905-.3905-.3905-1.0237 0-1.4142m10 4c.3905-.3905 1.0237-.3905 1.4142 0l2 2c.3905.3905.3905 1.0237 0 1.4142l-2 2c-.3905.3905-1.0237.3905-1.4142 0s-.3905-1.0237 0-1.4142L18.5858 17H14c-.5523 0-1-.4477-1-1s.4477-1 1-1h4.5858l-.2929-.2929c-.3905-.3905-.3905-1.0237 0-1.4142m-1.4142 6.8284c.6481.6482 1.5191.9377 2.3663.8687C18.6954 21.6096 17.8933 22 17 22H7c-1.6569 0-3-1.3431-3-3v-4h2v4c0 .5523.4477 1 1 1h9.7638q.0555.0618.1149.1213M9 18c0 .5523-.4477 1-1 1s-1-.4477-1-1 .4477-1 1-1 1 .4477 1 1m2 1c.5523 0 1-.4477 1-1s-.4477-1-1-1-1 .4477-1 1 .4477 1 1 1"/></svg>
